X: 16713
T: Happy To Meet, Sorry To Part
R: jig
M: 6/8
K: Gmajor
B2B BAB|GDG G2A|Bde dBG|B3 AGA|
B2B BAB|GDG G2A|Bde dBA|AGF GBd|
gdB BAB|GDG G2A|Bde dBG|B3 AGA|
B2B BAB|GDG G2A|Bde dBA|AGF GBd||
g2g age|dBd dBd|gbg aga|bge e2f|
gaf gfe|ded def|g2d edB|ABd efg:|

